resources/icons/hicolor/scalable/actions/cm-wireless-disabled-symbolic.svg

<?xml version="1.0" encoding="UTF-8"?>
<svg height="16px" viewBox="0 0 16 16" width="16px" xmlns="http://www.w3.org/2000/svg">
    <path d="m 1.53125 0.46875 l -1.0625 1.0625 l 14 14 l 1.0625 -1.0625 l -6.191406 -6.191406 c 0.546875 0.175781 1.042968 0.46875 1.421875 0.886718 l 0.5 0.542969 c 0.175781 0.199219 0.425781 0.316407 0.691406 0.328125 c 0.265625 0.015625 0.523437 -0.078125 0.722656 -0.257812 c 0.195313 -0.179688 0.3125 -0.429688 0.324219 -0.695313 c 0.011719 -0.261719 -0.082031 -0.523437 -0.261719 -0.71875 l -0.5 -0.546875 c -1.121093 -1.234375 -2.703125 -1.828125 -4.269531 -1.816406 c -0.28125 0.003906 -0.5625 0.027344 -0.839844 0.066406 l -1.671875 -1.671875 c 2.859375 -0.839843 6.183594 -0.222656 8.351563 1.851563 l 0.5 0.476562 c 0.398437 0.378906 1.03125 0.367188 1.414062 -0.03125 c 0.378906 -0.398437 0.367188 -1.03125 -0.03125 -1.410156 l -0.496094 -0.480469 c -1.957031 -1.875 -4.578124 -2.808593 -7.195312 -2.808593 c -1.410156 0 -2.820312 0.273437 -4.125 0.820312 z m -0.230469 3.894531 c -0.167969 0.140625 -0.335937 0.28125 -0.496093 0.4375 l -0.496094 0.480469 c -0.3984378 0.378906 -0.410156 1.011719 -0.03125 1.410156 c 0.382812 0.398438 1.015625 0.410156 1.414062 0.03125 l 0.5 -0.476562 c 0.171875 -0.164063 0.347656 -0.316406 0.535156 -0.460938 z m 2.96875 2.964844 c -0.179687 0.148437 -0.347656 0.3125 -0.507812 0.484375 l -0.5 0.550781 c -0.179688 0.195313 -0.277344 0.453125 -0.261719 0.71875 c 0.011719 0.265625 0.128906 0.515625 0.324219 0.695313 c 0.199219 0.179687 0.457031 0.273437 0.722656 0.257812 c 0.265625 -0.011718 0.515625 -0.128906 0.691406 -0.328125 l 0.5 -0.546875 c 0.136719 -0.148437 0.292969 -0.28125 0.460938 -0.402344 z m 2.867188 2.871094 c -0.199219 0.09375 -0.386719 0.222656 -0.550781 0.386719 c -0.78125 0.78125 -0.78125 2.046874 0 2.828124 s 2.046874 0.78125 2.828124 0 c 0.164063 -0.164062 0.292969 -0.351562 0.386719 -0.550781 z m 0 0" fill="#2e3436"/>
</svg>

<svg width='16' height='16'
     xmlns:gpa='https://www.gtk.org/grappa'
     gpa:version='1'>
  <path d='M1.53 0.47L0.47 1.53L14.47 15.53L15.53 14.47L9.34 8.28C9.89 8.45 10.38 8.75 10.76 9.16L11.26 9.71C11.44 9.91 11.69 10.02 11.95 10.04C12.22 10.05 12.48 9.96 12.68 9.78C12.87 9.60 12.99 9.35 13.00 9.08C13.01 8.82 12.92 8.56 12.74 8.36L12.24 7.82C11.12 6.58 9.54 5.99 7.97 6.00C7.69 6.00 7.41 6.03 7.13 6.07L5.46 4.39C8.32 3.55 11.64 4.17 13.81 6.25L14.31 6.72C14.71 7.10 15.34 7.09 15.72 6.69C16.10 6.29 16.09 5.66 15.69 5.28L15.20 4.80C13.24 2.93 10.62 1.99 8.00 1.99C6.59 1.99 5.18 2.27 3.88 2.81ZM1.30 4.36C1.13 4.50 0.96 4.64 0.80 4.80L0.31 5.28C-0.09 5.66 -0.10 6.29 0.28 6.69C0.66 7.09 1.29 7.10 1.69 6.72L2.19 6.25C2.36 6.08 2.54 5.93 2.73 5.79ZM4.27 7.33C4.09 7.48 3.92 7.64 3.76 7.81L3.26 8.36C3.08 8.56 2.98 8.82 3.00 9.08C3.01 9.35 3.13 9.60 3.32 9.78C3.52 9.96 3.78 10.05 4.05 10.04C4.31 10.02 4.56 9.91 4.74 9.71L5.24 9.16C5.38 9.01 5.53 8.88 5.70 8.76ZM7.14 10.20C6.94 10.29 6.75 10.42 6.59 10.59C5.80 11.37 5.80 12.63 6.59 13.41C7.37 14.20 8.63 14.20 9.41 13.41C9.58 13.25 9.71 13.06 9.80 12.86ZM7.14 10.20'
stroke='none'
fill='rgb(0,0,0)'
gpa:fill='foreground'/>
</svg>
